X: 132
T:Schottisch fran Havero - countermelody
M:4/4
L:1/8
C:Alm Nils Ersson
R:Schottisch
Z:Steve Mansfield
K:Dm
F2FG ABAG | F2ED ^C2A,C | DEFA d2Ad | ^cdc=B AGEG | F2FG ABAG |
F2ED ^C2A,C | DEFA d2Ad |1 c2AG [F4A4]:|2 ^cBAG [F4A4] |
|: f2fe f2A^c | d>ed^c d2A2 | ^c2cA E2A,2 | ABAG (3GAG F2D2 | f2fe f2A^c |
d>ed^c d2A2 | ^c2cA G2EG |1 F2GE [F4A4] :|2 [F2A2][F2A2] [F4A4] ||
<end>
<start>
